X: 2
T: Cranking Out
R: reel
M: 4/4
L: 1/8
K: Dmix
D2 AD BDAD|(3FED AD BcGE|(3FED AD BDAB|ccAc EcGE|
D2 AD BDAD|(3FED AD BcGE|(3FED AD BDAB|ccGE DEGg|
fdAd FADg|fdAB cGEg|fdAd FADB|cBcG EDEg|
fdAd FADg|fdAB cGEg|fdAd FADB|cBcG EDEC`|


